source/img/icon-email.svg

<svg width="32" height="22" viewBox="0 0 32 22" fill="none" xmlns="http://www.w3.org/2000/svg">
<path fill-rule="evenodd" clip-rule="evenodd" d="M31.234 3.55525C31.2301 2.93853 30.9958 2.34556 30.577 1.89277C30.5702 1.88451 30.565 1.8751 30.5615 1.86497C30.5544 1.85786 30.5441 1.85528 30.5363 1.8475C30.0617 1.34732 29.4023 1.06419 28.7128 1.06445H3.75455C3.06437 1.06469 2.40442 1.34768 1.92847 1.8475C1.92073 1.85528 1.91102 1.85786 1.90585 1.86757C1.89926 1.87587 1.89421 1.88528 1.89095 1.89536C1.47126 2.34651 1.23674 2.93908 1.23401 3.55525V18.2381C1.23548 18.8701 1.48077 19.4772 1.91878 19.9329C1.9243 19.9437 1.93101 19.9539 1.93878 19.9633C1.94138 19.9658 1.94655 19.9658 1.94849 19.9704C2.42319 20.4572 3.07453 20.7315 3.75449 20.7308H28.7128C29.393 20.7308 30.0443 20.4558 30.5188 19.9684L30.5291 19.9633C30.5362 19.9555 30.5388 19.9432 30.5491 19.9355C30.9865 19.4784 31.2316 18.8707 31.2339 18.2381L31.234 3.55525ZM21.4131 10.1223L30.0591 2.95389C30.1462 3.14248 30.1919 3.34754 30.193 3.55525V18.2381C30.1923 18.4268 30.1554 18.6136 30.0844 18.7884L21.4131 10.1223ZM28.7128 2.09257C28.9229 2.09291 29.1304 2.13765 29.322 2.22384L16.2324 13.0748L3.14607 2.22384C3.33735 2.13759 3.54474 2.09285 3.75457 2.09257H28.7128ZM2.38306 18.7884C2.31023 18.614 2.27244 18.427 2.27185 18.2381V3.55525C2.27291 3.34725 2.31948 3.14199 2.40828 2.95389L11.0549 10.1223L2.38306 18.7884ZM3.75457 19.7027C3.52373 19.7005 3.29648 19.6452 3.09048 19.541L11.8528 10.7838L15.8994 14.1385C16.0924 14.2997 16.3731 14.2997 16.566 14.1385L20.6152 10.7838L29.3769 19.541C29.171 19.6453 28.9437 19.7006 28.7128 19.7027H3.75457Z" fill="#F9572E"/>
<path d="M31.234 3.55525L31.584 3.55526L31.584 3.55303L31.234 3.55525ZM30.577 1.89277L30.3067 2.11511L30.3132 2.12295L30.3201 2.13041L30.577 1.89277ZM30.5615 1.86497L30.8927 1.75173L30.8664 1.6749L30.809 1.61749L30.5615 1.86497ZM30.5363 1.8475L30.2823 2.0885L30.2887 2.09483L30.5363 1.8475ZM28.7128 1.06445V1.41445L28.713 1.41445L28.7128 1.06445ZM3.75455 1.06445V0.714453L3.75443 0.714453L3.75455 1.06445ZM1.92847 1.8475L2.17665 2.09441L2.18193 2.08886L1.92847 1.8475ZM1.90585 1.86757L2.17988 2.0853L2.19977 2.06028L2.21479 2.03206L1.90585 1.86757ZM1.89095 1.89536L2.14721 2.13375L2.20006 2.07694L2.22395 2.00311L1.89095 1.89536ZM1.23401 3.55525L0.884009 3.5537V3.55525H1.23401ZM1.23401 18.2381H0.884008L0.88401 18.2389L1.23401 18.2381ZM1.91878 19.9329L2.23063 19.774L2.20707 19.7277L2.17111 19.6903L1.91878 19.9329ZM1.93878 19.9633L1.66948 20.1868L1.6807 20.2003L1.69322 20.2127L1.93878 19.9633ZM1.94849 19.9704L1.62664 20.1079L1.6523 20.168L1.6979 20.2147L1.94849 19.9704ZM3.75449 20.7308V20.3808H3.75415L3.75449 20.7308ZM28.7128 20.7308V21.0808H28.7128L28.7128 20.7308ZM30.5188 19.9684L30.3625 19.6553L30.3094 19.6818L30.268 19.7243L30.5188 19.9684ZM30.5291 19.9633L30.6854 20.2765L30.7437 20.2474L30.7876 20.1992L30.5291 19.9633ZM30.5491 19.9355L30.7597 20.215L30.7824 20.1979L30.802 20.1774L30.5491 19.9355ZM31.2339 18.2381L31.5839 18.2393V18.2381L31.2339 18.2381ZM21.4131 10.1223L21.1898 9.85291L20.8939 10.0982L21.1657 10.3699L21.4131 10.1223ZM30.0591 2.95389L30.3769 2.80719L30.1861 2.39395L29.8358 2.68446L30.0591 2.95389ZM30.193 3.55525H30.543L30.543 3.55335L30.193 3.55525ZM30.193 18.2381L30.543 18.2393V18.2381H30.193ZM30.0844 18.7884L29.837 19.0359L30.21 19.4087L30.4086 18.9202L30.0844 18.7884ZM28.7128 2.09257L28.7134 1.74257H28.7128V2.09257ZM29.322 2.22384L29.5453 2.4933L29.9775 2.13505L29.4656 1.90468L29.322 2.22384ZM16.2324 13.0748L16.009 13.3443L16.2324 13.5295L16.4558 13.3443L16.2324 13.0748ZM3.14607 2.22384L3.00219 1.90478L2.49097 2.13531L2.92266 2.49327L3.14607 2.22384ZM3.75457 2.09257V1.74257L3.75411 1.74257L3.75457 2.09257ZM2.38306 18.7884L2.0601 18.9233L2.26127 19.4049L2.63046 19.0359L2.38306 18.7884ZM2.27185 18.2381H1.92185L1.92185 18.2392L2.27185 18.2381ZM2.27185 3.55525L1.92185 3.55347V3.55525H2.27185ZM2.40828 2.95389L2.63166 2.68445L2.28437 2.39653L2.09178 2.80447L2.40828 2.95389ZM11.0549 10.1223L11.3023 10.3699L11.5742 10.0982L11.2783 9.8529L11.0549 10.1223ZM3.75457 19.7027L3.75131 20.0527H3.75457V19.7027ZM3.09048 19.541L2.84306 19.2935L2.50115 19.6352L2.93251 19.8533L3.09048 19.541ZM11.8528 10.7838L12.0762 10.5144L11.8309 10.311L11.6054 10.5363L11.8528 10.7838ZM15.8994 14.1385L16.1238 13.8699L16.1228 13.8691L15.8994 14.1385ZM16.566 14.1385L16.3428 13.869L16.3417 13.8699L16.566 14.1385ZM20.6152 10.7838L20.8626 10.5363L20.6373 10.311L20.3919 10.5143L20.6152 10.7838ZM29.3769 19.541L29.535 19.8533L29.9661 19.6351L29.6244 19.2935L29.3769 19.541ZM28.7128 19.7027V20.0527L28.716 20.0527L28.7128 19.7027ZM31.584 3.55303C31.5795 2.84898 31.312 2.17204 30.834 1.65514L30.3201 2.13041C30.6795 2.51908 30.8807 3.02809 30.884 3.55748L31.584 3.55303ZM30.8473 1.67044C30.8672 1.69462 30.8826 1.72216 30.8927 1.75173L30.2303 1.97821C30.2474 2.02803 30.2732 2.07441 30.3067 2.11511L30.8473 1.67044ZM30.809 1.61749C30.7848 1.59332 30.7619 1.57698 30.7468 1.56716C30.7393 1.56223 30.7329 1.5584 30.7287 1.55599C30.7249 1.55379 30.7213 1.55174 30.7211 1.55161C30.7199 1.55096 30.7216 1.5519 30.7239 1.55325C30.7264 1.55473 30.7309 1.55746 30.7365 1.56119C30.7478 1.56873 30.7652 1.58143 30.7839 1.60018L30.2887 2.09483C30.3113 2.11747 30.3329 2.1334 30.3485 2.14384C30.3563 2.14902 30.363 2.15311 30.3678 2.1559C30.3723 2.15856 30.3762 2.16076 30.3773 2.16137C30.3793 2.16249 30.3778 2.16168 30.3762 2.16076C30.3743 2.15962 30.37 2.15708 30.3645 2.15352C30.3536 2.14643 30.3346 2.13307 30.314 2.11246L30.809 1.61749ZM30.7902 1.60659C30.2494 1.03673 29.4983 0.714152 28.7127 0.714453L28.713 1.41445C29.3064 1.41423 29.8739 1.65792 30.2824 2.08842L30.7902 1.60659ZM28.7128 0.714453H3.75455V1.41445H28.7128V0.714453ZM3.75443 0.714453C2.96849 0.714719 2.21699 1.03698 1.675 1.60614L2.18193 2.08886C2.59185 1.65839 3.16024 1.41465 3.75467 1.41445L3.75443 0.714453ZM1.68034 1.60065C1.69727 1.58364 1.71223 1.57256 1.71876 1.5679C1.72181 1.56571 1.72412 1.56417 1.72322 1.56478C1.72322 1.56478 1.72191 1.56566 1.72087 1.56637C1.71961 1.56722 1.71767 1.56855 1.71537 1.57016C1.69735 1.58279 1.63877 1.62446 1.59691 1.70308L2.21479 2.03206C2.17809 2.10098 2.12696 2.1365 2.11702 2.14347C2.11505 2.14485 2.11305 2.14619 2.11533 2.14465C2.11651 2.14385 2.1209 2.14089 2.12604 2.13721C2.13672 2.12957 2.1558 2.11526 2.17659 2.09435L1.68034 1.60065ZM1.63181 1.64985C1.59914 1.69097 1.57412 1.73764 1.55795 1.78762L2.22395 2.00311C2.2143 2.03293 2.19938 2.06076 2.17988 2.0853L1.63181 1.64985ZM1.63469 1.65697C1.15512 2.17249 0.887128 2.84962 0.884012 3.5537L1.58401 3.5568C1.58634 3.02855 1.7874 2.52053 2.14721 2.13375L1.63469 1.65697ZM0.884009 3.55525V18.2381H1.58401V3.55525H0.884009ZM0.88401 18.2389C0.88569 18.9611 1.16597 19.6548 1.66645 20.1754L2.17111 19.6903C1.79557 19.2997 1.58527 18.7792 1.58401 18.2373L0.88401 18.2389ZM1.60693 20.0918C1.6242 20.1257 1.64518 20.1576 1.66948 20.1868L2.20808 19.7397C2.21684 19.7503 2.2244 19.7618 2.23063 19.774L1.60693 20.0918ZM1.69322 20.2127C1.73356 20.2524 1.77373 20.2726 1.7873 20.2792C1.79143 20.2812 1.79486 20.2828 1.79707 20.2838C1.79917 20.2848 1.80092 20.2855 1.80118 20.2857C1.80306 20.2865 1.79835 20.2844 1.79319 20.282C1.78274 20.277 1.75257 20.2622 1.71985 20.2344C1.68387 20.2038 1.64967 20.1618 1.62664 20.1079L2.27034 19.8328C2.24634 19.7767 2.21077 19.733 2.17319 19.701C2.13887 19.6719 2.10688 19.6561 2.09458 19.6502C2.09112 19.6485 2.08827 19.6472 2.08654 19.6465C2.08566 19.6461 2.08493 19.6457 2.08449 19.6456C2.08427 19.6455 2.08408 19.6454 2.08397 19.6453C2.08392 19.6453 2.08386 19.6453 2.08384 19.6453C2.0838 19.6452 2.0838 19.6452 2.08379 19.6452C2.0828 19.6448 2.08833 19.6472 2.09494 19.6504C2.10675 19.6562 2.1453 19.6754 2.18434 19.7139L1.69322 20.2127ZM1.6979 20.2147C2.23855 20.7692 2.98039 21.0815 3.75482 21.0808L3.75415 20.3808C3.16867 20.3814 2.60782 20.1452 2.19908 19.726L1.6979 20.2147ZM3.75449 21.0808H28.7128V20.3808H3.75449V21.0808ZM28.7128 21.0808C29.4874 21.0807 30.2292 20.7676 30.7695 20.2126L30.268 19.7243C29.8594 20.144 29.2985 20.3808 28.7127 20.3808L28.7128 21.0808ZM30.675 20.2816L30.6854 20.2765L30.3729 19.6501L30.3625 19.6553L30.675 20.2816ZM30.7876 20.1992C30.8003 20.1853 30.8103 20.1723 30.8178 20.1616C30.8253 20.1509 30.831 20.1417 30.8348 20.1353C30.8385 20.129 30.8414 20.1238 30.8425 20.1219C30.8443 20.1185 30.8433 20.1204 30.8428 20.1212C30.8413 20.124 30.8336 20.1377 30.8209 20.1543C30.8074 20.172 30.7875 20.1941 30.7597 20.215L30.3385 19.6559C30.2733 19.705 30.2412 19.763 30.233 19.7775C30.2318 19.7796 30.2309 19.7814 30.2303 19.7825C30.23 19.783 30.2297 19.7835 30.2295 19.7838C30.2293 19.7841 30.2293 19.7842 30.2292 19.7843C30.2289 19.7849 30.2305 19.7821 30.2327 19.7782C30.237 19.771 30.2495 19.7505 30.2706 19.7273L30.7876 20.1992ZM30.802 20.1774C31.3014 19.6555 31.5813 18.9617 31.5839 18.2393L30.8839 18.2368C30.882 18.7798 30.6716 19.3012 30.2962 19.6935L30.802 20.1774ZM31.5839 18.2381L31.584 3.55526L30.884 3.55525L30.8839 18.2381L31.5839 18.2381ZM21.6365 10.3918L30.2825 3.22333L29.8358 2.68446L21.1898 9.85291L21.6365 10.3918ZM29.7414 3.1006C29.8075 3.24378 29.8421 3.39946 29.843 3.55715L30.543 3.55335C30.5416 3.29562 30.485 3.04119 30.3769 2.80719L29.7414 3.1006ZM29.843 3.55525V18.2381H30.543V3.55525H29.843ZM29.843 18.2368C29.8425 18.3807 29.8143 18.5232 29.7601 18.6566L30.4086 18.9202C30.4965 18.7039 30.5421 18.4728 30.543 18.2393L29.843 18.2368ZM30.3318 18.5408L21.6606 9.87478L21.1657 10.3699L29.837 19.0359L30.3318 18.5408ZM28.7123 2.44257C28.873 2.44283 29.0318 2.47706 29.1783 2.54301L29.4656 1.90468C29.2291 1.79824 28.9728 1.74299 28.7134 1.74257L28.7123 2.44257ZM29.0986 1.95439L16.009 12.8054L16.4558 13.3443L29.5453 2.4933L29.0986 1.95439ZM16.4558 12.8054L3.36947 1.95442L2.92266 2.49327L16.009 13.3443L16.4558 12.8054ZM3.28994 2.5429C3.43614 2.47698 3.59465 2.44278 3.75503 2.44257L3.75411 1.74257C3.49483 1.74291 3.23856 1.7982 3.00219 1.90478L3.28994 2.5429ZM3.75457 2.44257H28.7128V1.74257H3.75457V2.44257ZM2.70602 18.6535C2.6509 18.5215 2.6223 18.38 2.62185 18.237L1.92185 18.2392C1.92259 18.4741 1.96956 18.7065 2.0601 18.9233L2.70602 18.6535ZM2.62185 18.2381V3.55525H1.92185V18.2381H2.62185ZM2.62184 3.55704C2.62265 3.4001 2.65778 3.24524 2.72478 3.10331L2.09178 2.80447C1.98117 3.03875 1.92318 3.29439 1.92185 3.55347L2.62184 3.55704ZM2.1849 3.22334L10.8315 10.3918L11.2783 9.8529L2.63166 2.68445L2.1849 3.22334ZM10.8075 9.87477L2.13565 18.5408L2.63046 19.0359L11.3023 10.3699L10.8075 9.87477ZM3.75783 19.3527C3.58076 19.351 3.40646 19.3086 3.24845 19.2287L2.93251 19.8533C3.18651 19.9818 3.46669 20.05 3.75131 20.0527L3.75783 19.3527ZM3.33789 19.7886L12.1003 11.0314L11.6054 10.5363L2.84306 19.2935L3.33789 19.7886ZM11.6295 11.0533L15.676 14.408L16.1228 13.8691L12.0762 10.5144L11.6295 11.0533ZM15.675 14.4071C15.9979 14.6768 16.4676 14.6768 16.7904 14.4071L16.3417 13.8699C16.2786 13.9226 16.1869 13.9226 16.1238 13.8699L15.675 14.4071ZM16.7893 14.408L20.8385 11.0533L20.3919 10.5143L16.3428 13.869L16.7893 14.408ZM20.3678 11.0314L29.1295 19.7886L29.6244 19.2935L20.8626 10.5363L20.3678 11.0314ZM29.2189 19.2287C29.0609 19.3087 28.8867 19.3511 28.7097 19.3527L28.716 20.0527C29.0007 20.0501 29.281 19.9819 29.535 19.8533L29.2189 19.2287ZM28.7128 19.3527H3.75457V20.0527H28.7128V19.3527Z" fill="#F9572E"/>
</svg>

<svg width="32" height="22" fill="none" xmlns="http://www.w3.org/2000/svg"><path fill-rule="evenodd" clip-rule="evenodd" d="M31.234 3.555a2.471 2.471 0 00-.657-1.662.09.09 0 01-.016-.028c-.007-.007-.017-.01-.025-.018a2.513 2.513 0 00-1.823-.783H3.755c-.69 0-1.35.284-1.827.783-.007.008-.017.01-.022.02a.088.088 0 00-.015.028 2.453 2.453 0 00-.657 1.66v14.683c.001.632.247 1.24.685 1.695.005.01.012.02.02.03.002.003.008.003.01.007a2.519 2.519 0 001.805.76h24.959a2.52 2.52 0 001.806-.762l.01-.005c.007-.008.01-.02.02-.027a2.468 2.468 0 00.685-1.698V3.555zm-9.82 6.567l8.645-7.168c.087.188.133.394.134.601v14.683c0 .189-.038.376-.109.55l-8.67-8.666zm7.299-8.03c.21 0 .417.046.609.132l-13.09 10.85L3.146 2.225c.191-.086.399-.131.609-.131h24.958zM2.383 18.789a1.44 1.44 0 01-.111-.55V3.555c0-.208.047-.413.136-.601l8.647 7.168-8.672 8.666zm1.372.915a1.503 1.503 0 01-.665-.162l8.763-8.757 4.046 3.354a.52.52 0 00.667 0l4.05-3.354 8.76 8.757a1.5 1.5 0 01-.663.162H3.755z" fill="#F9572E"/><path d="M31.234 3.555h.35v-.002l-.35.002zm-.657-1.662l-.27.222.006.008.007.007.257-.237zm-.016-.028l.332-.113-.027-.077-.057-.058-.248.248zm-.025-.018l-.254.241.007.007.247-.248zm-1.823-.783v.35-.35zm-24.958 0v-.35.35zm-1.827.783l.249.247.005-.005-.254-.242zm-.022.02l.274.218.02-.025.015-.028-.31-.164zm-.015.028l.256.239.053-.057.024-.074-.333-.108zm-.657 1.66l-.35-.001v.001h.35zm0 14.683h-.35.35zm.685 1.695l.312-.159-.024-.046-.036-.038-.252.243zm.02.03l-.27.224.012.013.012.013.246-.25zm.01.007l-.322.138.025.06.046.047.25-.245zm1.805.76v-.35.35zm24.959 0v.35-.35zm1.806-.762l-.156-.313-.054.027-.041.042.25.244zm.01-.005l.156.313.059-.029.044-.048-.259-.236zm.02-.027l.21.279.023-.017.02-.02-.253-.242zm.685-1.698l.35.001h-.35zm-9.82-8.116l-.224-.27-.296.246.272.272.247-.248zm8.645-7.168l.318-.147-.19-.413-.351.29.223.27zm.134.601h.35v-.002l-.35.002zm0 14.683l.35.001h-.35zm-.109.55l-.247.248.373.373.199-.489-.325-.132zM28.713 2.093v-.35.35zm.609.13l.223.27.432-.358-.511-.23-.144.319zm-13.09 10.852l-.223.27.223.184.224-.185-.224-.27zM3.146 2.224l-.144-.32-.511.231.432.358.223-.27zm.609-.131v-.35.35zM2.383 18.788l-.323.135.201.482.37-.37-.248-.247zm-.111-.55h-.35v.001h.35zm0-14.683l-.35-.002v.002h.35zm.136-.601l.224-.27-.348-.287-.192.407.316.15zm8.647 7.168l.247.248.272-.272-.296-.245-.223.27zm-7.3 9.58l-.004.35h.004v-.35zm-.665-.161l-.247-.247-.342.341.432.218.157-.312zm8.763-8.757l.223-.27-.245-.203-.226.225.248.248zm4.046 3.354l.225-.268h-.001l-.224.269zm.667 0l-.223-.269h-.001l.224.27zm4.05-3.354l.247-.248-.226-.225-.245.203.223.27zm8.76 8.757l.159.312.431-.218-.342-.341-.247.247zm-.663.162v.35h.003l-.003-.35zm2.871-16.15a2.822 2.822 0 00-.75-1.898l-.514.475c.36.39.56.898.564 1.427l.7-.004zm-.737-1.883a.26.26 0 01.046.082l-.663.226a.44.44 0 00.077.137l.54-.445zm-.038-.053a.385.385 0 00-.08-.061l-.008-.004.003.001a.284.284 0 01.06.047l-.495.495a.393.393 0 00.087.066l-.012-.007a.313.313 0 01-.05-.042l.495-.495zm-.019-.01a2.863 2.863 0 00-2.077-.893v.7c.593 0 1.16.244 1.57.674l.507-.481zM28.713.714H3.755v.7h24.958v-.7zm-24.959 0c-.786 0-1.537.323-2.079.892l.507.483c.41-.43.978-.674 1.573-.675v-.7zm-2.074.887a.303.303 0 01.039-.033l.004-.003-.002.001a.408.408 0 00-.124.137l.618.33c-.037.068-.088.103-.098.11l-.002.002.011-.008a.395.395 0 00.05-.043l-.496-.493zm-.048.049a.438.438 0 00-.074.138l.666.215a.262.262 0 01-.044.082l-.548-.435zm.003.007a2.803 2.803 0 00-.751 1.897l.7.003a2.103 2.103 0 01.563-1.423l-.512-.477zM.884 3.555v14.683h.7V3.555h-.7zm0 14.684c.002.722.282 1.416.782 1.936l.505-.485a2.103 2.103 0 01-.587-1.453l-.7.002zm.723 1.853a.512.512 0 00.062.095l.54-.447c.008.01.015.022.022.034l-.624.318zm.086.12a.357.357 0 00.104.072l.004.002-.008-.004a.34.34 0 01-.166-.174l.643-.275a.358.358 0 00-.183-.186l-.003-.001.01.004a.32.32 0 01.09.064l-.49.499zm.005.003a2.87 2.87 0 002.057.866v-.7a2.169 2.169 0 01-1.556-.655l-.501.489zm2.056.866h24.959v-.7H3.754v.7zm24.959 0a2.87 2.87 0 002.056-.868l-.501-.489a2.17 2.17 0 01-1.555.657v.7zm1.962-.8l.01-.005-.312-.626-.01.005.312.627zm.113-.082a.375.375 0 00.047-.064l.008-.013c.001-.003 0-.002 0 0a.315.315 0 01-.083.094l-.422-.56a.38.38 0 00-.105.122l-.003.005v.001l.003-.006a.318.318 0 01.038-.05l.517.471zm.014-.022c.5-.521.78-1.215.782-1.938l-.7-.002a2.118 2.118 0 01-.588 1.457l.506.483zm.782-1.939V3.555h-.7v14.683h.7zm-9.947-7.846l8.645-7.169-.446-.539-8.646 7.169.447.539zM29.74 3.1c.067.143.101.298.102.456l.7-.004a1.802 1.802 0 00-.166-.746l-.636.294zm.102.454v14.683h.7V3.555h-.7zm0 14.682c0 .144-.029.286-.083.42l.649.263c.088-.216.133-.447.134-.68l-.7-.003zm.489.304L21.66 9.875l-.495.495 8.671 8.666.495-.495zm-1.62-16.098c.161 0 .32.034.466.1l.288-.638a1.84 1.84 0 00-.753-.162v.7zm.387-.489l-13.09 10.851.447.54 13.09-10.852-.447-.539zM16.456 12.805L3.369 1.955l-.446.538 13.086 10.851.447-.539zM3.29 2.543c.146-.066.305-.1.465-.1v-.7c-.26 0-.516.055-.753.162l.288.638zm.465-.1h24.958v-.7H3.755v.7zm-1.049 16.21a1.09 1.09 0 01-.084-.416l-.7.002c0 .235.048.467.138.684l.646-.27zm-.084-.415V3.555h-.7v14.683h.7zm0-14.681c0-.157.036-.312.103-.454l-.633-.299c-.11.235-.169.49-.17.75l.7.003zm-.437-.334l8.646 7.169.447-.54-8.646-7.168-.447.54zm8.622 6.652L2.136 18.54l.494.495 8.672-8.666-.495-.495zm-7.05 9.478a1.153 1.153 0 01-.509-.124l-.315.624c.254.129.534.197.818.2l.007-.7zm-.42.436L12.1 11.03l-.495-.495-8.762 8.758.495.495zm8.293-8.736l4.046 3.355.447-.539-4.047-3.355-.447.54zm4.045 3.354a.87.87 0 001.115 0l-.448-.537a.17.17 0 01-.218 0l-.449.537zm1.114.001l4.05-3.355-.447-.539-4.05 3.355.447.539zm3.579-3.377l8.762 8.758.494-.495-8.761-8.758-.495.495zm8.85 8.198a1.15 1.15 0 01-.508.124l.006.7a1.85 1.85 0 00.819-.2l-.316-.624zm-.505.124H3.755v.7h24.958v-.7z" fill="#F9572E"/></svg>
